public/flags/KR.svg

<svg fill="none" height="53" viewBox="0 0 61 53" width="61" xmlns="http://www.w3.org/2000/svg" xmlns:xlink="http://www.w3.org/1999/xlink"><mask id="a" height="43" maskUnits="userSpaceOnUse" width="59" x="1" y="3"><rect fill="#fff" height="41.4393" rx="3.7125" stroke="#fff" stroke-width="1.06071" width="57.9393" x="1.53036" y="3.53036"/></mask><mask id="b" height="21" maskUnits="userSpaceOnUse" width="21" x="20" y="14"><path clip-rule="evenodd" d="m30.5001 34.1666c5.4308 0 9.8333-4.4398 9.8333-9.9166s-4.4025-9.9167-9.8333-9.9167-9.8334 4.4399-9.8334 9.9167 4.4026 9.9166 9.8334 9.9166z" fill="#fff" fill-rule="evenodd"/></mask><rect fill="#fff" height="41.4393" rx="3.7125" stroke="#f5f5f5" stroke-width="1.06071" width="57.9393" x="1.53036" y="3.53036"/><g mask="url(#a)"><path clip-rule="evenodd" d="m30.5001 34.1666c5.4308 0 9.8333-4.4398 9.8333-9.9166s-4.4025-9.9167-9.8333-9.9167-9.8334 4.4399-9.8334 9.9167 4.4026 9.9166 9.8334 9.9166z" fill="#e01b41" fill-rule="evenodd"/><g mask="url(#b)"><path clip-rule="evenodd" d="m20.6666 25.6666c2.8096 2.6563 7.0239 4.25 9.8334 0s8.4285-4.25 9.8333 0 0 8.5 0 8.5h-19.6667s-2.8095-11.1562 0-8.5z" fill="#0e4b9c" fill-rule="evenodd"/></g><path clip-rule="evenodd" d="m44.8192 11.0052c-.3375.1965-.4538.6306-.2598.9695l3.5116 6.1338c.1941.339.625.4544.9625.2579l1.2109-.705c.3375-.1965.4538-.6306.2598-.9695l-3.5116-6.1339c-.1941-.3389-.625-.4544-.9625-.2578zm-3.6496 2.125c-.3375.1965-.4538.6306-.2597.9695l3.5116 6.1338c.194.339.6249.4544.9624.2579l1.2109-.705c.3375-.1966.4538-.6306.2598-.9695l-3.5116-6.1339c-.1941-.3389-.625-.4544-.9625-.2579zm-30.6738 18.6779c-.1941-.339-.0778-.773.2597-.9695l1.2109-.7051c.3376-.1965.7685-.081.9625.2579l3.5116 6.1338c.194.339.0777.773-.2598.9695l-1.2109.7051c-.3375.1965-.7684.081-.9624-.2579zm3.9094-3.0945c-.3375.1965-.4538.6305-.2597.9695l3.5116 6.1338c.194.3389.6249.4544.9624.2579l1.2109-.7051c.3375-.1965.4538-.6305.2598-.9695l-3.5116-6.1338c-.194-.3389-.6249-.4544-.9624-.2579zm30.0162-.4473c.1941-.3389.625-.4543.9625-.2578l1.2109.705c.3375.1965.4538.6306.2598.9695l-3.5117 6.1339c-.194.3389-.6249.4543-.9624.2578l-1.2109-.705c-.3375-.1965-.4538-.6306-.2598-.9695zm4.6122 1.8672c-.3375-.1965-.7684-.081-.9625.2579l-3.5116 6.1338c-.194.339-.0777.773.2598.9695l1.2109.7051c.3375.1965.7684.081.9624-.2579l3.5117-6.1338c.194-.339.0777-.773-.2598-.9695zm-35.0261-19.5755c.194-.3389.6249-.4544.9624-.2578l1.2109.705c.3375.1965.4538.6306.2598.9695l-3.5116 6.1338c-.1941.339-.625.4544-.9625.2579l-1.2109-.705c-.3375-.1965-.4538-.6306-.2597-.9695zm4.6121 1.8671c-.3375-.1965-.7684-.081-.9624.2579l-3.5116 6.1339c-.1941.3389-.0778.773.2597.9695l1.2109.705c.3375.1965.7684.0811.9625-.2579l3.5116-6.1338c.194-.3389.0777-.773-.2598-.9695z" fill="#262626" fill-rule="evenodd" opacity=".75"/></g></svg>

<svg width="61" height="53" viewBox="0 0 61 53" fill="none" xmlns="http://www.w3.org/2000/svg">
<rect x="1.53036" y="3.53036" width="57.9393" height="41.4393" rx="3.7125" fill="white" stroke="#F5F5F5" stroke-width="1.06071"/>
<mask id="mask0" mask-type="alpha" maskUnits="userSpaceOnUse" x="1" y="3" width="59" height="43">
<rect x="1.53036" y="3.53036" width="57.9393" height="41.4393" rx="3.7125" fill="white" stroke="white" stroke-width="1.06071"/>
</mask>
<g mask="url(#mask0)">
<path fill-rule="evenodd" clip-rule="evenodd" d="M30.5001 34.1666C35.9309 34.1666 40.3334 29.7268 40.3334 24.25C40.3334 18.7732 35.9309 14.3333 30.5001 14.3333C25.0693 14.3333 20.6667 18.7732 20.6667 24.25C20.6667 29.7268 25.0693 34.1666 30.5001 34.1666Z" fill="#E01B41"/>
<mask id="mask1" mask-type="alpha" maskUnits="userSpaceOnUse" x="20" y="14" width="21" height="21">
<path fill-rule="evenodd" clip-rule="evenodd" d="M30.5001 34.1666C35.9309 34.1666 40.3334 29.7268 40.3334 24.25C40.3334 18.7732 35.9309 14.3333 30.5001 14.3333C25.0693 14.3333 20.6667 18.7732 20.6667 24.25C20.6667 29.7268 25.0693 34.1666 30.5001 34.1666Z" fill="white"/>
</mask>
<g mask="url(#mask1)">
<path fill-rule="evenodd" clip-rule="evenodd" d="M20.6666 25.6666C23.4762 28.3229 27.6905 29.9166 30.5 25.6666C33.3095 21.4166 38.9285 21.4166 40.3333 25.6666C41.7381 29.9166 40.3333 34.1666 40.3333 34.1666H20.6666C20.6666 34.1666 17.8571 23.0104 20.6666 25.6666Z" fill="#0E4B9C"/>
</g>
<path opacity="0.75" fill-rule="evenodd" clip-rule="evenodd" d="M44.8192 11.0052C44.4817 11.2017 44.3654 11.6358 44.5594 11.9747L48.071 18.1085C48.2651 18.4475 48.696 18.5629 49.0335 18.3664L50.2444 17.6614C50.5819 17.4649 50.6982 17.0308 50.5042 16.6919L46.9926 10.558C46.7985 10.2191 46.3676 10.1036 46.0301 10.3002L44.8192 11.0052ZM41.1696 13.1302C40.8321 13.3267 40.7158 13.7608 40.9099 14.0997L44.4215 20.2335C44.6155 20.5725 45.0464 20.6879 45.3839 20.4914L46.5948 19.7864C46.9323 19.5898 47.0486 19.1558 46.8546 18.8169L43.343 12.683C43.1489 12.3441 42.718 12.2286 42.3805 12.4251L41.1696 13.1302ZM10.4958 31.8081C10.3017 31.4691 10.418 31.0351 10.7555 30.8386L11.9664 30.1335C12.304 29.937 12.7349 30.0525 12.9289 30.3914L16.4405 36.5252C16.6345 36.8642 16.5182 37.2982 16.1807 37.4947L14.9698 38.1998C14.6323 38.3963 14.2014 38.2808 14.0074 37.9419L10.4958 31.8081ZM14.4052 28.7136C14.0677 28.9101 13.9514 29.3441 14.1455 29.6831L17.6571 35.8169C17.8511 36.1558 18.282 36.2713 18.6195 36.0748L19.8304 35.3697C20.1679 35.1732 20.2842 34.7392 20.0902 34.4002L16.5786 28.2664C16.3846 27.9275 15.9537 27.812 15.6162 28.0085L14.4052 28.7136ZM44.4214 28.2663C44.6155 27.9274 45.0464 27.812 45.3839 28.0085L46.5948 28.7135C46.9323 28.91 47.0486 29.3441 46.8546 29.683L43.3429 35.8169C43.1489 36.1558 42.718 36.2712 42.3805 36.0747L41.1696 35.3697C40.8321 35.1732 40.7158 34.7391 40.9098 34.4002L44.4214 28.2663ZM49.0336 30.1335C48.6961 29.937 48.2652 30.0525 48.0711 30.3914L44.5595 36.5252C44.3655 36.8642 44.4818 37.2982 44.8193 37.4947L46.0302 38.1998C46.3677 38.3963 46.7986 38.2808 46.9926 37.9419L50.5043 31.8081C50.6983 31.4691 50.582 31.0351 50.2445 30.8386L49.0336 30.1335ZM14.0075 10.558C14.2015 10.2191 14.6324 10.1036 14.9699 10.3002L16.1808 11.0052C16.5183 11.2017 16.6346 11.6358 16.4406 11.9747L12.929 18.1085C12.7349 18.4475 12.304 18.5629 11.9665 18.3664L10.7556 17.6614C10.4181 17.4649 10.3018 17.0308 10.4959 16.6919L14.0075 10.558ZM18.6196 12.4251C18.2821 12.2286 17.8512 12.3441 17.6572 12.683L14.1456 18.8169C13.9515 19.1558 14.0678 19.5899 14.4053 19.7864L15.6162 20.4914C15.9537 20.6879 16.3846 20.5725 16.5787 20.2335L20.0903 14.0997C20.2843 13.7608 20.168 13.3267 19.8305 13.1302L18.6196 12.4251Z" fill="#262626"/>
</g>
</svg>
